X: 42430
T: West Wind, The
R: reel
M: 4/4
K: Gmajor
BdGA BGdB|ADFG ABcA|BdGA BGdB|cAFG AG G2|
BdGA BGdB|AD F2 ABcA|G2 Bd g2 ge|fdcA AG G2|
|:G2 Bd g2 ge|f2 fd ABcA|G2 Bd g2 ge|fdcA BGFA|
G2 Bd g2 ge|f2 fd ABcA|dg g2 bgag|1 fdcA AGGF:|2 fdcA AGGA||
|:B2 GB B2 GB|A2 FA A2 FA|B2 GB B2 GB|cAFG AGGA|
B2 GB GBdB|A2 FA dAFA|G2 Bd g2 ge|1 fdcA AGGA:|2 fdcA AG G2||

